custom_files/u162.svg

<svg width="19" height="19" viewBox="-237 608 19 19" xmlns="http://www.w3.org/2000/svg"><path d="M-227.5 608c5.32 0 9.5 4.18 9.5 9.5s-4.18 9.5-9.5 9.5-9.5-4.18-9.5-9.5 4.18-9.5 9.5-9.5z" fill="#aaa5a5"/><path d="M-227.5 608.5c5.04 0 9 3.96 9 9s-3.96 9-9 9-9-3.96-9-9 3.96-9 9-9z" stroke="#797979" fill="none"/></svg>

﻿<?xml version="1.0" encoding="utf-8"?>
<svg version="1.1" xmlns:xlink="http://www.w3.org/1999/xlink" width="19px" height="19px" viewBox="-237 608  19 19" xmlns="http://www.w3.org/2000/svg">
  <path d="M -227.5 608  C -222.18 608  -218 612.18  -218 617.5  C -218 622.82  -222.18 627  -227.5 627  C -232.82 627  -237 622.82  -237 617.5  C -237 612.18  -232.82 608  -227.5 608  Z " fill-rule="nonzero" fill="#aaa5a5" stroke="none" />
  <path d="M -227.5 608.5  C -222.46 608.5  -218.5 612.46  -218.5 617.5  C -218.5 622.54  -222.46 626.5  -227.5 626.5  C -232.54 626.5  -236.5 622.54  -236.5 617.5  C -236.5 612.46  -232.54 608.5  -227.5 608.5  Z " stroke-width="1" stroke="#797979" fill="none" />
</svg>
